X:1
T:Damn The Filipinos
M:4/4
L:1/8
K:Bb
 z4 z2 F3/2 E/2| D/2 F3/2 B3/2 c/2 B2 B3/2 A/2| G/2 B3/2 B3/2 A/2 F2 F3/2 E/2|\
 D3/2 F/2 B3/2 c/2 d3/2 d/2 c3/2 B/2| c6 F3/2 E/2| D3/2 F/2 B3/2 c/2 B2 B3/2 A/2|\
 G3/2 B/2 B3/2 G/2 F2 d3/2 c/2| B3/2 A/2 B3/2 G/2 A3/2 F/2 A3/2 c/2|\
 B6 z2| d2 d2 d3/2 c/2 B3/2 G/2| F4 B4| c2 c2 d3/2 c/2 B3/2 d/2| c6 F3/2 E/2|\
 D3/2 F/2 B3/2 c/2 B2 B3/2 A/2| G3/2 B/2 B3/2 G/2 F2 d3/2 c/2| B3/2 A/2 B3/2 G/2 A3/2 F/2A/2 c3/2|\
 B4 z4|
